X:1
T:Irish Wash-Woman -- Jig
R:jig
B:Ryan's Mammoth Collection
N: 87 452
Z: Contributed by Ray Davies,  ray:davies99.freeserve.co.uk
M:6/8
L:1/8
K:G
u(d/c/)|\
BGG DGG | BGB dcB | cAA DAA | cAc edc |
BGG DGG | BGB dcB | cBc Adc | BGG G2 :|
|:ug/a/|\
bgg dgg | bgb bag | aff dff | fdf agf |
egg dgg | cgg Bgg | dcB Adc | BGG G2 :|
